lib/assets/icons/svg/outlined-navigation-goback.svg

<svg xmlns="http://www.w3.org/2000/svg" viewBox="0 0 24 24"><path d="M15.203 18.687h-10a.5.5 0 0 1 0-1h10c3.245-.158 5.102-3.769 3.342-6.5a4.218 4.218 0 0 0-3.342-1.93h-9.29l3.7 2.12a.48.48 0 0 1 .24.48.51.51 0 0 1-.21.32.48.48 0 0 1-.37.07h-.12l-5.28-3a.622.622 0 0 1-.22-.36.596.596 0 0 1 .1-.43l.07-.07 5.28-3a.474.474 0 1 1 .51.8h-.05l-3.65 2.18h9.28a5.16 5.16 0 0 1 5.16 5.15 5.16 5.16 0 0 1-5.15 5.16z"/></svg>

<svg viewBox="0 0 24 24" xmlns="http://www.w3.org/2000/svg">
  <path  d="M 15.203 18.687 L 5.203 18.687 C 4.818 18.687 4.578 18.27 4.77 17.937 C 4.859 17.782 5.024 17.687 5.203 17.687 L 15.203 17.687 C 18.448 17.529 20.305 13.918 18.545 11.187 C 17.808 10.042 16.563 9.323 15.203 9.257 L 5.913 9.257 L 9.613 11.377 C 9.783 11.473 9.878 11.663 9.853 11.857 C 9.827 11.987 9.752 12.102 9.643 12.177 C 9.534 12.25 9.401 12.275 9.273 12.247 L 9.153 12.247 L 3.873 9.247 C 3.76 9.156 3.682 9.029 3.653 8.887 C 3.63 8.736 3.666 8.582 3.753 8.457 L 3.823 8.387 L 9.103 5.387 C 9.411 5.191 9.816 5.401 9.832 5.766 C 9.839 5.935 9.756 6.096 9.613 6.187 L 9.563 6.187 L 5.913 8.367 L 15.193 8.367 C 18.039 8.367 20.347 10.671 20.353 13.517 C 20.353 16.363 18.049 18.671 15.203 18.677 Z"/>
</svg>
